dist/img/home/icons/header/log in@4xу.svg

<svg xmlns="http://www.w3.org/2000/svg" viewBox="0 0 24.92 22.75"><g data-name="Слой 2"><g data-name="Слой 1"><path d="M12.42 13.3a6.49 6.49 0 10-6.49-6.5 6.49 6.49 0 006.49 6.5zm0-11.3a4.78 4.78 0 11-4.78 4.8A4.79 4.79 0 0112.42 2zM1.19 22.42h22.54a.85.85 0 00.86-.86 8.15 8.15 0 00-8.15-8.14h-8a8.15 8.15 0 00-8.11 8.14.85.85 0 00.86.86zm7.29-7.29h8a6.43 6.43 0 016.38 5.58H2.1a6.45 6.45 0 016.38-5.58z" fill="#4d4d4d" stroke="#fff" stroke-miterlimit="10" stroke-width=".66" data-name="log in"/></g></g></svg>

<svg xmlns="http://www.w3.org/2000/svg" viewBox="0 0 24.92 22.75"><defs><style>.cls-1{fill:#4d4d4d;stroke:#fff;stroke-miterlimit:10;stroke-width:0.66px;}</style></defs><title>log in@4xу</title><g id="Слой_2" data-name="Слой 2"><g id="Слой_1-2" data-name="Слой 1"><g id="log_in" data-name="log in"><path class="cls-1" d="M12.42,13.3A6.49,6.49,0,1,0,5.93,6.8,6.49,6.49,0,0,0,12.42,13.3ZM12.42,2A4.78,4.78,0,1,1,7.64,6.8,4.79,4.79,0,0,1,12.42,2Z"/><path class="cls-1" d="M1.19,22.42H23.73a.85.85,0,0,0,.86-.86,8.15,8.15,0,0,0-8.15-8.14h-8A8.15,8.15,0,0,0,.33,21.56.85.85,0,0,0,1.19,22.42Zm7.29-7.29h8a6.43,6.43,0,0,1,6.38,5.58H2.1A6.45,6.45,0,0,1,8.48,15.13Z"/></g></g></g></svg>
